X:1
T:O What a Savior
T:Ira David Sankey
T:O What a Savior
T:Public Domain
T:Public Domain
C:Ira David Sankey
Z:Public Domain
%%score ( 1 2 ) 3
L:1/8
M:4/4
K:Bb
V:1 treble 
V:2 treble 
V:3 bass 
V:1
 [Fd]2 [Fd]>[Ec] [DB]2 F2 | [EG][GB][FA][EG] [DF]4 | [DB][DB][FB][FB] [DB][FB][=EA][EB] | %3
w: 1.~Come to the Sav- ior,|His lov- ing voice; Ne-|ver will you find a friend so true;|
w: 2.~Blest words of com- fort,|ly now they fall, Je-|sus is the life, the truth, the way;|
w: 3.~Soft- ly the Spir- it|pers in the heart, Do|not slight the Sav- ior’s of- fered grace;|
w: 4.~Light in the dark- ness,|in a- ny pain, Ref-|uge for the wear- y and op- pressed;|
 [Fc]6 z2 | [Fd]2 [Fd]>[Ec] [DB]2 F2 | [EG][GB][FA][EG] [DF]4 | [FB][FB][DB][DB] [Fd]2 [Ec]2 | %7
w: Now|He is wait- ing, trust|and re- joice, Ten- der-|ly He call- eth you. *|
w: Come|to the fount- ain, there|room for all; Je- sus|bids you come to- day. O,|
w: Glad-|ly re- ceive Him, let|not de- part; Hap- py|they who seek His face. *|
w: Still|He is wait- ing, call-|yet a- gain; Come, and|He will give you rest. *|
 [DB]6 z2 ||"^Refrain" [Fc]2 [Fc]>[Fd] [Fe]2 [FA]2 | [FB][FA][FB][Ec] (D2 F2) | %10
w: |||
w: what|a Sav- ior stand- ing|at the door, Haste while *|
w: |||
w: |||
 [Fc]2 [Fc]>[Fd] [Fe]2 [FA]2 | [FB][FA][FB][Fd] [Fc]4 |] %12
w: ||
w: lin- gers, par- don now|im- plore * * *|
w: ||
w: ||
V:2
 x6 F2 | x8 | x8 | x8 | x6 F2 | x8 | x8 | x8 || x8 | x4 d4 | x8 | x8 |] %12
w: hear||||Him||||||||
w: gent-||||is|||||He|||
w: whis-||||Him||||||||
w: joy||||ing||||||||
V:3
 [B,,B,]2 [B,,B,]>[B,,F,] [B,,F,]2 [D,B,]2 | [E,B,][E,B,][E,B,][E,B,] [B,,B,]4 | %2
w: ~ ~ ~ ~ ~|~ ~ ~ ~ ~|
 [B,,F,][B,,F,][D,B,][D,B,] [G,B,][G,D][C,C][C,G,] | [F,A,]6 z2 | %4
w: ~ ~ ~ ~ ~ ~ ~ ~|~|
 [B,,B,]2 [B,,B,]>[B,,F,] [B,,F,]2 [D,B,]2 | [E,B,][E,B,][E,B,][E,B,] [B,,B,]4 | %6
w: DS.~Still He is wait- ing,|grieve His love no more,|
 [D,B,][D,B,][G,B,][G,B,] [F,B,]2 [F,A,]2 | [B,,B,]6 z2 || [F,A,]2 [F,A,]>[F,B,] [F,C]2 [E,C]2 | %9
w: Ten- der- ly He call- eth|you.||
 [D,B,][E,C][D,B,][C,A,] [B,,B,]4 | [F,A,]2 [F,A,]>[F,B,] [F,C]2 [E,C]2 | %11
w: ||
 [D,B,][C,E][B,,D][B,,B,] [F,A,]4 |] %12
w: |

